!!!COM: Felix Mendelssohn
!!!CNT: Deutsch
!!!TXO: Deutsch
!!!OTL: Sonntagslied
!!!LYR: C. Klingemann
!!!OPS: Op. 34
!!!ONM: No. 5
!!!ENC: Daniel Alt & Leigh VanHandel
!!!YOR: Sa2mmtliche Lieder fu2r eine Singstimme 
!!!YOR: Neu revidirt von Dr. L. Benda, Ausgabe fu2r mittlere Stimme
!!!YOR: Braunschweig. Henry Litolff's Verlag. Boston and New York: Arthur P. Schmidt.
!!!ODT: 1834/
**kern	**silbe
*staff1	*
=1-	=1-
*clefG2	*
*k[f#]	*
*M6/8	*
{8g	{Ring-
8b	-sum
8a	er-
4g	-schallt
8b	in
=2	=2
4dd	Wald
8cc	und
4a	Flur
8a	viel
=3	=3
4cc	fer-
8b	-nes
4g	Glo-
8g	-cken-
=4	=4
4.a	-klin-
4dd}	-gen,}
8r	.
=5	=5
{8g	{die
8b	Win-
8a	-de
4g	we-
8b	-hen
=6	=6
4ee	heim-
8dd	-lich
4cc	nur,
8b	und
=7	=7
4a	leis'
8a	die
8a	Vo2g-
cc#q	|
8b	|
8a	-lein
=8	=8
4.dd	sin-
4a}	-gen,}
{8f#	{und
=9	=9
4f#	leis'
8f#	die
gq	Vo2g-
8f#	|
8e	|
8f#	-lein
=10	=10
4.a	sin-
4.d}	-gen.}
=11	=11
4r	.
8r	.
4r	.
{8dd	{Und
=12	=12
4dd	Or-
8b	-gel-
4b	-klang
8cc	und
=13	=13
4cc	Chor-
8a	-ge-
4a	-sang
8b	er-
=14	=14
4b	-bau-
8e	-lich
4e	zieht
8e	das
=15	=15
8e	Thal
8a	|
8b	ent-
[4.cc	-lang,
=16	=16
4.cc_	|
8cc]}	|}
8r	.
{8a	{er-
=17	=17
4cc	-bau-
8b	-lich
4a	zieht
8ee	das
=18	=18
[4.dd	Thal
8dd]	|
8a	|
8b	ent-
=19	=19
4.g}	-lang.}
4r	.
8r	.
=20	=20
2.r	.
=21	=21
2.r	.
=22	=22
2.dd	{Horch!}
=23	=23
{8g	{horch,
8b	was
8a	er-
4g	-to2nt
8b	Schal-
=24	=24
4dd	-mei-
8cc	-en-
4a	-klang,
8a	was
=25	=25
4cc	sieht
8b	so
4g	froh
8g	in's
=26	=26
4.a	Wei-
4dd}	-te?}
8r	.
=27	=27
{8g	{Zur
8b	Kir-
8a	-che
4g	wallt
8b	mit
=28	=28
4ee	hel-
8dd	-lem
4cc	Sang
8b	ein
=29	=29
4a	se-
8a	-lig
8a	Braut-
cc#q	|
8b	|
8a	-ge-
=30	=30
4.dd	-lei-
4a}	-te,}
{8f#	{ein
=31	=31
4f#	se-
8f#	-lig
gq	Braut-
8f#	|
8e	|
8f#	-ge-
=32	=32
4.a	-lei-
4.d}	-te.}
=33	=33
4r	.
8r	.
4r	.
{8dd	{Und
=34	=34
4dd	ich,
8b	ich
4b	bin
8cc	so
=35	=35
4cc	gar
8a	al-
4a}	-lein,}
8r	.
=36	=36
4r	.
{8e	{ich
4e	bin
8e	so
=37	-37
8e	gar
8a	|
8b	al-
[4.cc	-lein!
=38	=38
4.cc_	|
8cc]}	|}
8r	.
{8a	{Ach,
=39	=39
4cc	Ei-
8b	-ner
4a	du2rf-
8ee	-te
=40	=40
[4.dd	bei-
8dd]	|
8a	|
8b	-mir
=41	=41
4.g}	sein!}
4r	.
{8d	{Ach,
=42	=42
[4.dd	Ei-
4dd]	|
8b	-ner
=43	=43
4.a	du2rf-
4.g	-te
=44	=44
[4.f#	bei-
8f#]	|
8b	|
8a	mir
=45	=45
4.g}	sein!}
4r	.
8r	.
==	==
*-	*-
